svg/blobs-icons/no-decorations/colander.svg

<svg xmlns="http://www.w3.org/2000/svg" preserveAspectRatio="xMidYMid" width="216" height="123"><defs><style>.cls-3{fill:#3c9cc3}.cls-5{fill:#000;opacity:.35}.cls-9{fill:#3c9cc3}</style></defs><g id="group-118svg"><path d="M107.776 97.661c50.766.0 91.921-41.154 91.921-91.917H15.855c0 50.763 41.155 91.917 91.921 91.917z" id="path-1" class="cls-3" fill-rule="evenodd"/><path d="M107.776 97.661c-12.845.0-25.07-2.642-36.173-7.401l-5.982 19.739c-1.894 6.25 2.784 12.557 9.316 12.557h66.423c6.305.0 10.946-5.902 9.46-12.028l-5.107-21.066a91.522 91.522.0 01-37.937 8.199z" id="path-2" class="cls-3" fill-rule="evenodd"/><path d="M68.909 99.147a91.569 91.569.0 0038.867 8.616c14.395.0 28.012-3.313 40.142-9.21l-2.205-9.091a91.538 91.538.0 01-37.937 8.199c-12.845.0-25.071-2.642-36.174-7.401l-2.693 8.887z" id="path-3" class="cls-5" fill-rule="evenodd"/><path d="M207.676 7.021H7.876a3.511 3.511.0 010-7.023h199.8a3.512 3.512.0 010 7.023z" id="path-4" class="cls-3" fill-rule="evenodd"/><path d="M5.142 24.864h21.426a5.136 5.136.0 100-10.272H5.142a5.135 5.135.0 000 10.272z" id="path-5" class="cls-3" fill-rule="evenodd"/><path d="M188.984 24.864h21.426a5.136 5.136.0 100-10.272h-21.426a5.136 5.136.0 000 10.272z" id="path-6" class="cls-3" fill-rule="evenodd"/><path d="M66.313 29.346a4.483 4.483.0 11-8.966.0 4.483 4.483.0 018.966.0z" id="path-7" class="cls-9" fill-rule="evenodd"/><path d="M40.779 29.346a4.483 4.483.0 11-8.966.0 4.483 4.483.0 018.966.0z" id="path-8" class="cls-9" fill-rule="evenodd"/><path d="M99.506 29.346a4.482 4.482.0 11-8.964.002 4.482 4.482.0 018.964-.002z" id="path-9" class="cls-9" fill-rule="evenodd"/><path d="M168.447 29.346a4.482 4.482.0 11-8.964.002 4.482 4.482.0 018.964-.002z" id="path-10" class="cls-9" fill-rule="evenodd"/><path d="M122.487 49.773a4.483 4.483.0 11-8.965-.001 4.483 4.483.0 018.965.001z" id="path-11" class="cls-9" fill-rule="evenodd"/><path d="M89.293 49.773a4.483 4.483.0 11-8.965-.001 4.483 4.483.0 018.965.001z" id="path-12" class="cls-9" fill-rule="evenodd"/><path d="M163.341 49.773a4.484 4.484.0 11-8.967-.003 4.484 4.484.0 018.967.003z" id="path-13" class="cls-9" fill-rule="evenodd"/><path d="M142.914 67.646a4.481 4.481.0 01-4.483 4.482 4.483 4.483.0 114.483-4.482z" id="path-14" class="cls-9" fill-rule="evenodd"/><path d="M109.72 70.2a4.483 4.483.0 11-8.967-.003 4.483 4.483.0 018.967.003z" id="path-15" class="cls-9" fill-rule="evenodd"/><path d="M58.653 49.773a4.483 4.483.0 11-8.965-.001 4.483 4.483.0 018.965.001z" id="path-16" class="cls-9" fill-rule="evenodd"/><path d="M140.36 31.9a4.483 4.483.0 11-8.965.0 4.483 4.483.0 018.965.0z" id="path-17" class="cls-9" fill-rule="evenodd"/><path d="M61.83 24.864c-.597.0-1.162.127-1.684.339a4.475 4.475.0 012.799 4.143 4.475 4.475.0 01-2.799 4.144 4.478 4.478.0 001.684.339 4.483 4.483.0 100-8.965z" id="path-18" class="cls-5" fill-rule="evenodd"/><path d="M36.296 24.864c-.597.0-1.163.127-1.684.339a4.474 4.474.0 012.8 4.143 4.475 4.475.0 01-2.8 4.144 4.474 4.474.0 001.684.339 4.483 4.483.0 100-8.965z" id="path-19" class="cls-5" fill-rule="evenodd"/><path d="M95.024 24.864c-.598.0-1.163.127-1.684.339a4.475 4.475.0 012.799 4.143A4.475 4.475.0 0193.34 33.49a4.47 4.47.0 001.684.339 4.482 4.482.0 000-8.965z" id="path-20" class="cls-5" fill-rule="evenodd"/><path d="M163.964 24.864c-.597.0-1.162.127-1.684.339a4.474 4.474.0 012.8 4.143 4.475 4.475.0 01-2.8 4.144 4.478 4.478.0 001.684.339 4.482 4.482.0 100-8.965z" id="path-21" class="cls-5" fill-rule="evenodd"/><path d="M118.004 45.289c-.598.0-1.162.129-1.684.342a4.47 4.47.0 012.799 4.142 4.473 4.473.0 01-2.799 4.143 4.455 4.455.0 001.684.339 4.483 4.483.0 100-8.966z" id="path-22" class="cls-5" fill-rule="evenodd"/><path d="M84.81 45.289c-.597.0-1.162.129-1.683.342a4.472 4.472.0 012.799 4.142 4.474 4.474.0 01-2.799 4.143 4.45 4.45.0 001.683.339 4.483 4.483.0 100-8.966z" id="path-23" class="cls-5" fill-rule="evenodd"/><path d="M158.858 45.289c-.598.0-1.163.129-1.684.342a4.47 4.47.0 012.799 4.142 4.473 4.473.0 01-2.799 4.143 4.451 4.451.0 001.684.339 4.483 4.483.0 100-8.966z" id="path-24" class="cls-5" fill-rule="evenodd"/><path d="M138.431 63.163c-.597.0-1.163.128-1.684.34a4.474 4.474.0 012.799 4.143 4.473 4.473.0 01-2.799 4.143 4.474 4.474.0 001.684.339 4.483 4.483.0 100-8.965z" id="path-25" class="cls-5" fill-rule="evenodd"/><path d="M105.237 65.717c-.597.0-1.163.128-1.684.34a4.474 4.474.0 012.8 4.143 4.471 4.471.0 01-2.8 4.141 4.437 4.437.0 001.684.341 4.483 4.483.0 000-8.965z" id="path-26" class="cls-5" fill-rule="evenodd"/><path d="M54.17 45.289c-.597.0-1.163.129-1.684.342a4.47 4.47.0 012.799 4.142 4.473 4.473.0 01-2.799 4.143 4.455 4.455.0 001.684.339 4.483 4.483.0 100-8.966z" id="path-27" class="cls-5" fill-rule="evenodd"/><path d="M135.878 27.418c-.597.0-1.163.127-1.685.339a4.472 4.472.0 012.8 4.143 4.473 4.473.0 01-2.8 4.143c.522.212 1.088.34 1.685.34a4.483 4.483.0 000-8.965z" id="path-28" class="cls-5" fill-rule="evenodd"/><path d="M198.639 19.727c.634-4.148.967-8.396 1.026-12.706H15.887c.059 4.31-.339 2.203.294 6.353l182.458 6.353z" id="path-29" class="cls-5" fill-rule="evenodd"/></g></svg>

<svg xmlns="http://www.w3.org/2000/svg" xmlns:xlink="http://www.w3.org/1999/xlink" preserveAspectRatio="xMidYMid" width="216" height="123" viewBox="0 0 216 123"><defs><style>.cls-3{fill:#3c9cc3}.cls-5{fill:#000;opacity:.35}.cls-9{fill:#3c9cc3}</style></defs><g id="group-118svg"><path d="M107.776 97.661c50.766.0 91.921-41.154 91.921-91.917H15.855c0 50.763 41.155 91.917 91.921 91.917z" id="path-1" class="cls-3" fill-rule="evenodd"/><path d="M107.776 97.661c-12.845.0-25.07-2.642-36.173-7.401l-5.982 19.739C63.727 116.249 68.405 122.556 74.937 122.556H141.36C147.665 122.556 152.306 116.654 150.82 110.528l-5.107-21.066c-11.569 5.252-24.404 8.199-37.937 8.199z" id="path-2" class="cls-3" fill-rule="evenodd"/><path d="M68.909 99.147c11.808 5.517 24.973 8.616 38.867 8.616C122.171 107.763 135.788 104.45 147.918 98.553L145.713 89.462C134.144 94.713 121.309 97.661 107.776 97.661c-12.845.0-25.071-2.642-36.174-7.401l-2.693 8.887z" id="path-3" class="cls-5" fill-rule="evenodd"/><path d="M207.676 7.021s-199.8.0-199.8.0c-1.939.0-3.511-1.573-3.511-3.512.0-1.939 1.572-3.511 3.511-3.511h199.8C209.615-.002 211.187 1.57 211.187 3.509 211.187 5.448 209.615 7.021 207.676 7.021z" id="path-4" class="cls-3" fill-rule="evenodd"/><path d="M5.142 24.864s21.426.0 21.426.0c2.837.0 5.136-2.299 5.136-5.137.0-2.835-2.299-5.135-5.136-5.135H5.142c-2.836.0-5.135 2.3-5.135 5.135.0 2.838 2.299 5.137 5.135 5.137z" id="path-5" class="cls-3" fill-rule="evenodd"/><path d="M188.984 24.864s21.426.0 21.426.0c2.83700000000002.0 5.136-2.299 5.136-5.137.0-2.835-2.29899999999998-5.135-5.136-5.135H188.984c-2.83600000000001.0-5.136 2.3-5.136 5.135.0 2.838 2.29999999999998 5.137 5.136 5.137z" id="path-6" class="cls-3" fill-rule="evenodd"/><path d="M66.313 29.346C66.313 31.822 64.306 33.829 61.83 33.829s-4.482-2.007-4.482-4.483c0-2.475 2.006-4.482 4.482-4.482s4.483 2.007 4.483 4.482z" id="path-7" class="cls-9" fill-rule="evenodd"/><path d="M40.779 29.346C40.779 31.822 38.772 33.829 36.296 33.829c-2.475.0-4.482-2.007-4.482-4.483.0-2.475 2.007-4.482 4.482-4.482 2.476.0 4.483 2.007 4.483 4.482z" id="path-8" class="cls-9" fill-rule="evenodd"/><path d="M99.506 29.346c0 2.476-2.006 4.483-4.482 4.483s-4.483-2.007-4.483-4.483C90.541 26.871 92.548 24.864 95.024 24.864s4.482 2.007 4.482 4.482z" id="path-9" class="cls-9" fill-rule="evenodd"/><path d="M168.447 29.346c0 2.476-2.006 4.483-4.483 4.483-2.47499999999999.0-4.482-2.007-4.482-4.483.0-2.475 2.00700000000001-4.482 4.482-4.482 2.477.0 4.483 2.007 4.483 4.482z" id="path-10" class="cls-9" fill-rule="evenodd"/><path d="M122.487 49.773C122.487 52.248 120.48 54.255 118.004 54.255S113.521 52.248 113.521 49.773C113.521 47.297 115.528 45.289 118.004 45.289S122.487 47.297 122.487 49.773z" id="path-11" class="cls-9" fill-rule="evenodd"/><path d="M89.293 49.773C89.293 52.248 87.286 54.255 84.81 54.255 82.335 54.255 80.328 52.248 80.328 49.773 80.328 47.297 82.335 45.289 84.81 45.289c2.476.0 4.483 2.008 4.483 4.484z" id="path-12" class="cls-9" fill-rule="evenodd"/><path d="M163.341 49.773C163.341 52.248 161.334 54.255 158.858 54.255S154.374 52.248 154.374 49.773C154.374 47.297 156.382 45.289 158.858 45.289s4.483 2.008 4.483 4.484z" id="path-13" class="cls-9" fill-rule="evenodd"/><path d="M142.914 67.646C142.914 70.123 140.907 72.128 138.431 72.128s-4.483-2.005-4.483-4.482c0-2.476 2.00700000000001-4.483 4.483-4.483S142.914 65.17 142.914 67.646z" id="path-14" class="cls-9" fill-rule="evenodd"/><path d="M109.72 70.2c0 2.474-2.00700000000001 4.482-4.483 4.482S100.754 72.674 100.754 70.2C100.754 67.724 102.761 65.717 105.237 65.717S109.72 67.724 109.72 70.2z" id="path-15" class="cls-9" fill-rule="evenodd"/><path d="M58.653 49.773C58.653 52.248 56.646 54.255 54.17 54.255S49.687 52.248 49.687 49.773C49.687 47.297 51.694 45.289 54.17 45.289s4.483 2.008 4.483 4.484z" id="path-16" class="cls-9" fill-rule="evenodd"/><path d="M140.36 31.9C140.36 34.376 138.353 36.383 135.878 36.383 133.402 36.383 131.395 34.376 131.395 31.9 131.395 29.423 133.402 27.418 135.878 27.418 138.353 27.418 140.36 29.423 140.36 31.9z" id="path-17" class="cls-9" fill-rule="evenodd"/><path d="M61.83 24.864C61.233 24.864 60.668 24.991 60.146 25.203 61.785 25.871 62.945 27.468 62.945 29.346c0 1.879-1.16 3.476-2.799 4.144C60.668 33.701 61.233 33.829 61.83 33.829c2.476.0 4.483-2.007 4.483-4.483C66.313 26.871 64.306 24.864 61.83 24.864z" id="path-18" class="cls-5" fill-rule="evenodd"/><path d="M36.296 24.864C35.699 24.864 35.133 24.991 34.612 25.203c1.64.667999999999999 2.8 2.265 2.8 4.143.0 1.879-1.16 3.476-2.8 4.144C35.133 33.701 35.699 33.829 36.296 33.829c2.476.0 4.483-2.007 4.483-4.483C40.779 26.871 38.772 24.864 36.296 24.864z" id="path-19" class="cls-5" fill-rule="evenodd"/><path d="M95.024 24.864C94.426 24.864 93.861 24.991 93.34 25.203 94.979 25.871 96.139 27.468 96.139 29.346 96.139 31.225 94.979 32.822 93.34 33.49 93.861 33.701 94.426 33.829 95.024 33.829c2.476.0 4.482-2.007 4.482-4.483.0-2.475-2.006-4.482-4.482-4.482z" id="path-20" class="cls-5" fill-rule="evenodd"/><path d="M163.964 24.864C163.367 24.864 162.802 24.991 162.28 25.203 163.92 25.871 165.08 27.468 165.08 29.346 165.08 31.225 163.92 32.822 162.28 33.49 162.802 33.701 163.367 33.829 163.964 33.829c2.477.0 4.483-2.007 4.483-4.483.0-2.475-2.006-4.482-4.483-4.482z" id="path-21" class="cls-5" fill-rule="evenodd"/><path d="M118.004 45.289C117.406 45.289 116.842 45.418 116.32 45.631 117.959 46.297 119.119 47.894 119.119 49.773 119.119 51.652 117.959 53.249 116.32 53.916 116.842 54.128 117.406 54.255 118.004 54.255 120.48 54.255 122.487 52.248 122.487 49.773 122.487 47.297 120.48 45.289 118.004 45.289z" id="path-22" class="cls-5" fill-rule="evenodd"/><path d="M84.81 45.289C84.213 45.289 83.648 45.418 83.127 45.631 84.765 46.297 85.926 47.894 85.926 49.773 85.926 51.652 84.765 53.249 83.127 53.916 83.648 54.128 84.213 54.255 84.81 54.255 87.286 54.255 89.293 52.248 89.293 49.773 89.293 47.297 87.286 45.289 84.81 45.289z" id="path-23" class="cls-5" fill-rule="evenodd"/><path d="M158.858 45.289C158.26 45.289 157.695 45.418 157.174 45.631 158.813 46.297 159.973 47.894 159.973 49.773 159.973 51.652 158.813 53.249 157.174 53.916 157.695 54.128 158.26 54.255 158.858 54.255c2.476.0 4.483-2.00700000000001 4.483-4.482C163.341 47.297 161.334 45.289 158.858 45.289z" id="path-24" class="cls-5" fill-rule="evenodd"/><path d="M138.431 63.163C137.834 63.163 137.268 63.291 136.747 63.503 138.386 64.17 139.546 65.768 139.546 67.646c0 1.879-1.16 3.476-2.79899999999998 4.143C137.268 72 137.834 72.128 138.431 72.128 140.907 72.128 142.914 70.123 142.914 67.646 142.914 65.17 140.907 63.163 138.431 63.163z" id="path-25" class="cls-5" fill-rule="evenodd"/><path d="M105.237 65.717C104.64 65.717 104.074 65.845 103.553 66.057c1.639.665999999999997 2.8 2.265 2.8 4.143S105.192 73.675 103.553 74.341C104.074 74.554 104.64 74.682 105.237 74.682c2.476.0 4.483-2.008 4.483-4.482.0-2.476-2.00700000000001-4.483-4.483-4.483z" id="path-26" class="cls-5" fill-rule="evenodd"/><path d="M54.17 45.289C53.573 45.289 53.007 45.418 52.486 45.631 54.125 46.297 55.285 47.894 55.285 49.773 55.285 51.652 54.125 53.249 52.486 53.916 53.007 54.128 53.573 54.255 54.17 54.255 56.646 54.255 58.653 52.248 58.653 49.773 58.653 47.297 56.646 45.289 54.17 45.289z" id="path-27" class="cls-5" fill-rule="evenodd"/><path d="M135.878 27.418C135.281 27.418 134.715 27.545 134.193 27.757 135.833 28.424 136.993 30.021 136.993 31.9c0 1.878-1.16 3.476-2.79999999999998 4.143C134.715 36.255 135.281 36.383 135.878 36.383 138.353 36.383 140.36 34.376 140.36 31.9 140.36 29.423 138.353 27.418 135.878 27.418z" id="path-28" class="cls-5" fill-rule="evenodd"/><path d="M198.639 19.727C199.273 15.579 199.606 11.331 199.665 7.021H15.887C15.946 11.331 15.548 9.224 16.181 13.374l182.458 6.353z" id="path-29" class="cls-5" fill-rule="evenodd"/></g></svg>
